X: 179
T: Four Strong Winds
M:4/4
R:reel
L:1/8
Z:Alf Warnock - alf0@rogers.com
K:C
G2A2|"C"c4 c2B2|"Dm"A2A4Bc|"G7"B4 c2d2|"C"G4 G2A2|\
"C"c4 c2B2|"Dm"A4 B2c2|"G7"B8-|B4 c2d2|
"C"e3e d2c2|"Dm"d4 A2c2|"G7"B3B c2d2|"C"G4 d2e2|\
"F"f3f f2d2|"Am"c4 c2A2|"G7"G8-|G4 G2A2|
"C"c3c c2B2|"Dm"A3A A2c2|"G7"B3B c2d2|"C"G4 G2A2|\
"C"c3c c2B2|"Dm"A4 A2c2|"G7"B8-|B4 c2d2|
"C"e3e d2c2|"Dm"d4 A2c2|"G7"B3B c2d2|"C"G4 d2e2|\
"F"f3f f2d2|"Am"c3c c2A2|"G7"G8|]

